Papirus/16x16/apps/minicraft+.svg

<?xml version="1.0" encoding="UTF-8" standalone="no"?>
<svg
   id="_图层_1"
   version="1.1"
   viewBox="0 0 64 64" width="16" height="16"
   sodipodi:docname="minicraft+.svg"
   xml:space="preserve"
   inkscape:version="1.4 (e7c3feb100, 2024-10-09)"
   xmlns:inkscape="http://www.inkscape.org/namespaces/inkscape"
   xmlns:sodipodi="http://sodipodi.sourceforge.net/DTD/sodipodi-0.dtd"
   xmlns="http://www.w3.org/2000/svg"
   xmlns:svg="http://www.w3.org/2000/svg"><sodipodi:namedview
     id="namedview26"
     pagecolor="#505050"
     bordercolor="#eeeeee"
     borderopacity="1"
     inkscape:showpageshadow="0"
     inkscape:pageopacity="0"
     inkscape:pagecheckerboard="0"
     inkscape:deskcolor="#505050"
     inkscape:zoom="10.6875"
     inkscape:cx="32"
     inkscape:cy="32"
     inkscape:window-width="1920"
     inkscape:window-height="939"
     inkscape:window-x="0"
     inkscape:window-y="34"
     inkscape:window-maximized="1"
     inkscape:current-layer="_图层_1" /><!-- Generator: Adobe Illustrator 29.0.1, SVG Export Plug-In . SVG Version: 2.1.0 Build 192)  --><defs
     id="defs6"><style
       id="style1">
      .st0 {
        fill-opacity: .5;
      }

      .st0, .st1, .st2, .st3, .st4, .st5, .st6, .st7 {
        fill: #fff;
      }

      .st8 {
        fill: #133c9a;
      }

      .st2, .st9 {
        display: none;
      }

      .st3 {
        fill-opacity: .2;
      }

      .st4 {
        fill-opacity: .9;
      }

      .st10 {
        fill: #3370ff;
      }

      .st11 {
        fill: url(#_未命名的渐变_3);
      }

      .st12 {
        fill: url(#_未命名的渐变);
      }

      .st5 {
        fill-opacity: .3;
      }

      .st6 {
        fill-opacity: 0;
      }

      .st7 {
        fill-opacity: .7;
      }

      .st13 {
        fill: #00d6b9;
      }

      .st14 {
        fill: url(#_未命名的渐变_2);
      }
    </style><radialGradient
       id="_未命名的渐变"
       data-name="未命名的渐变"
       cx="123.9"
       cy="-40.2"
       fx="123.9"
       fy="-40.2"
       r="59.4"
       gradientTransform="translate(-26.8 25.5) scale(.6 -.7)"
       gradientUnits="userSpaceOnUse"><stop
         offset="0"
         stop-color="#db202e"
         id="stop1" /><stop
         offset="1"
         stop-color="#e01b24"
         id="stop2" /></radialGradient><radialGradient
       id="_未命名的渐变_2"
       data-name="未命名的渐变 2"
       cx="67.6"
       cy="26.8"
       fx="67.6"
       fy="26.8"
       r="105.2"
       gradientTransform="translate(-26.6 25.3) scale(.6 -.7)"
       gradientUnits="userSpaceOnUse"><stop
         offset="0"
         stop-color="#ffb648"
         id="stop3" /><stop
         offset="1"
         stop-color="#ff7800"
         stop-opacity="0"
         id="stop4" /></radialGradient><radialGradient
       id="_未命名的渐变_3"
       data-name="未命名的渐变 3"
       cx="61.7"
       cy="18.6"
       fx="61.7"
       fy="18.6"
       r="68"
       gradientTransform="translate(-26.8 25.8) scale(.6 -.7)"
       gradientUnits="userSpaceOnUse"><stop
         offset="0"
         stop-color="#c64600"
         id="stop5" /><stop
         offset="1"
         stop-color="#a51d2d"
         id="stop6" /></radialGradient></defs><path
     class="st1"
     d="M47.5,64.1H13.8c-7.6,0-13.8-6.3-13.8-13.8V13.7C0,6.2,6.2,0,13.7,0h36.6c7.5,0,13.7,6.2,13.7,13.7v36.6c0,7.5-6.2,13.7-13.7,13.7h-2.9.1Z"
     id="path6"
     style="fill:#f2f2f2;fill-opacity:1" /><g
     id="g31"
     transform="matrix(3.289303,0,0,3.3063352,4.9234456,7.2721282)"><path
       style="fill:#2d6375"
       d="M 6.7988281,1 C 5.7332663,1.0300746 4.7857975,1.7091904 4.4160156,2.7089844 L 1.1777344,11.449219 c -0.27433842,0.740618 -0.21324052,1.530772 0.1074218,2.132812 0.3206626,0.60204 0.8514292,1.016561 1.4394532,1.234375 0.5880239,0.217815 1.259048,0.247867 1.8945312,0 C 5.2546239,14.56854 5.8155054,14.01015 6.0898438,13.269531 L 7.25,10.130859 c 0.1550742,0.06187 0.2523586,0.180896 0.4160156,0.212891 l -0.3789062,1.232422 c -0.2467578,0.759373 -0.1500803,1.553704 0.203125,2.144531 0.3538429,0.591894 0.910943,0.981678 1.515625,1.167969 0.6046819,0.186291 1.2845716,0.178822 1.9101566,-0.111328 0.625584,-0.290151 1.154291,-0.895505 1.376953,-1.664063 l 2.583984,-8.4003904 a 1.0001,1.0001 0 0 0 0,-0.00195 C 15.249215,3.499876 14.673438,2.2960104 13.769531,1.7265625 12.865625,1.1571146 11.531242,1.1589152 10.599609,2.0175781 L 9.4453125,3.0839844 9.3730469,2.8496094 v -0.00195 C 9.0282001,1.7283697 7.9697164,0.96787081 6.7988281,1 Z"
       id="path1-7" /><path
       style="fill:#6acf96"
       d="M 6.8535156,3 C 6.598013,3.00721 6.3796829,3.1645637 6.2910156,3.4042969 L 3.0527344,12.144531 c -0.100658,0.271751 -0.063249,0.381012 -0.00195,0.496094 0.061296,0.115082 0.1959342,0.235388 0.3671876,0.298828 0.1712533,0.06343 0.3531346,0.06105 0.4746093,0.01367 0.1214747,-0.04738 0.2216041,-0.107155 0.3222657,-0.378906 L 5.8105469,8.2617188 A 1.0001,1.0001 0 0 1 7.6230469,8.125 c 0.183916,0.3321342 0.5746696,0.4262937 0.8886719,0.2128906 A 1.0001,1.0001 0 0 1 10.029297,9.4570312 L 9.1933594,12.175781 a 1.0001,1.0001 0 0 1 -0.00391,0.01758 c -0.092349,0.282724 -0.049312,0.390063 0.017578,0.501953 0.06689,0.111892 0.2110739,0.22654 0.3886719,0.28125 0.1775981,0.05472 0.3602554,0.04118 0.4785157,-0.01367 0.11826,-0.05485 0.214115,-0.118621 0.296875,-0.404297 a 1.0001,1.0001 0 0 1 0.0059,-0.01758 L 12.966797,4.125 c 0.113288,-0.3685532 -0.02576,-0.5583807 -0.261719,-0.7070312 -0.235959,-0.1486509 -0.466482,-0.1929517 -0.75,0.068359 L 9.6347656,5.6289062 A 1.0001,1.0001 0 0 1 8.0019531,5.1894531 L 7.4628906,3.4375 a 1.0001,1.0001 0 0 0 0,-0.00195 C 7.3798261,3.1653279 7.136107,2.99225 6.8535156,3 Z"
       id="path2" /><path
       style="fill:none;stroke:#ffce51;stroke-width:2;stroke-linecap:round"
       d="M 13,1 V 5 M 11,3 h 4 v 0 0"
       id="path3" /></g></svg>

<svg xmlns="http://www.w3.org/2000/svg" width="16" height="16" version="1">
 <path style="fill:#2d6375" d="M 6.7988281 1 C 5.7332663 1.0300746 4.7857975 1.7091904 4.4160156 2.7089844 L 1.1777344 11.449219 C 0.90339598 12.189837 0.96449388 12.979991 1.2851562 13.582031 C 1.6058188 14.184071 2.1365854 14.598592 2.7246094 14.816406 C 3.3126333 15.034221 3.9836574 15.064273 4.6191406 14.816406 C 5.2546239 14.56854 5.8155054 14.01015 6.0898438 13.269531 L 7.25 10.130859 C 7.4050742 10.192729 7.5023586 10.311755 7.6660156 10.34375 L 7.2871094 11.576172 C 7.0403516 12.335545 7.1370291 13.129876 7.4902344 13.720703 C 7.8440773 14.312597 8.4011774 14.702381 9.0058594 14.888672 C 9.6105413 15.074963 10.290431 15.067494 10.916016 14.777344 C 11.5416 14.487193 12.070307 13.881839 12.292969 13.113281 L 14.876953 4.7128906 A 1.0001 1.0001 0 0 0 14.876953 4.7109375 C 15.249215 3.499876 14.673438 2.2960104 13.769531 1.7265625 C 12.865625 1.1571146 11.531242 1.1589152 10.599609 2.0175781 L 9.4453125 3.0839844 L 9.3730469 2.8496094 L 9.3730469 2.8476562 C 9.0282001 1.7283697 7.9697164 0.96787081 6.7988281 1 z"/>
 <path style="fill:#6acf96" d="M 6.8535156 3 C 6.598013 3.0072114 6.3796829 3.1645637 6.2910156 3.4042969 L 3.0527344 12.144531 C 2.9520764 12.416282 2.9894852 12.525543 3.0507812 12.640625 C 3.112077 12.755707 3.2467154 12.876013 3.4179688 12.939453 C 3.5892221 13.002883 3.7711034 13.000505 3.8925781 12.953125 C 4.0140528 12.905744 4.1141822 12.84597 4.2148438 12.574219 L 5.8105469 8.2617188 A 1.0001 1.0001 0 0 1 7.6230469 8.125 C 7.8069629 8.4571342 8.1977165 8.5512937 8.5117188 8.3378906 A 1.0001 1.0001 0 0 1 10.029297 9.4570312 L 9.1933594 12.175781 A 1.0001 1.0001 0 0 1 9.1894531 12.193359 C 9.0971042 12.476083 9.1401412 12.583422 9.2070312 12.695312 C 9.2739216 12.807204 9.4181051 12.921852 9.5957031 12.976562 C 9.7733012 13.031283 9.9559585 13.017741 10.074219 12.962891 C 10.192479 12.908041 10.288334 12.84427 10.371094 12.558594 A 1.0001 1.0001 0 0 1 10.376953 12.541016 L 12.966797 4.125 C 13.080085 3.7564468 12.941037 3.5666193 12.705078 3.4179688 C 12.469119 3.2693179 12.238596 3.2250171 11.955078 3.4863281 L 9.6347656 5.6289062 A 1.0001 1.0001 0 0 1 8.0019531 5.1894531 L 7.4628906 3.4375 A 1.0001 1.0001 0 0 0 7.4628906 3.4355469 C 7.3798261 3.1653279 7.136107 2.99225 6.8535156 3 z"/>
 <path style="fill:none;stroke:#ffce51;stroke-width:2;stroke-linecap:round" d="M 13,1 V 5 M 11,3 h 4 v 0 0"/>
</svg>
